X: 141
T: Janny's Reel
C: Bert Murray
R: reel
B: Bert Murray's "Bon Accord Collection" 1999 p.14
Z: 2011 John Chambers <jc:trillian.mit.edu>
M: C|
L: 1/8
K: D
ud |\
AFEF DFAF | DGBG DFAF | GFGB AFDF | GFED E2(dB) |
AFEF DFAF | DGBG DFAF | GFGB Adce | dBAF D3 ||
ue |\
fdcd Adcd | FDFA dAFD | ge^de Be^de | cAce gece |
fdcd Adcd | FDFA dAFA | GFGB  Adce  | dBAF D3 |]

%%sep 2 1 500

